;START_OF_HEADER
;HEADER_VERSION:0.1
;FLAVOR:Griffin
;GENERATOR.NAME:Cura_SteamEngine
;GENERATOR.VERSION:4.10.0
;GENERATOR.BUILD_DATE:2021-06-29
;TARGET_MACHINE.NAME:Ultimaker 3
;EXTRUDER_TRAIN.0.INITIAL_TEMPERATURE:250
;EXTRUDER_TRAIN.0.MATERIAL.VOLUME_USED:72141
;EXTRUDER_TRAIN.0.MATERIAL.GUID:1cbfaeb3-1906-4b26-b2e7-6f777a8c197a
;EXTRUDER_TRAIN.0.NOZZLE.DIAMETER:0.4
;EXTRUDER_TRAIN.0.NOZZLE.NAME:AA 0.4
;BUILD_PLATE.TYPE:glass
;BUILD_PLATE.INITIAL_TEMPERATURE:90
;PRINT.TIME:30057
;PRINT.GROUPS:1
;PRINT.SIZE.MIN.X:9
;PRINT.SIZE.MIN.Y:6
;PRINT.SIZE.MIN.Z:0.27
;PRINT.SIZE.MAX.X:173.497
;PRINT.SIZE.MAX.Y:156.726
;PRINT.SIZE.MAX.Z:21.52
;END_OF_HEADER
;Generated with Cura_SteamEngine 4.10.0
T0
M82 ;absolute extrusion mode

G92 E0
M109 S250
G0 F15000 X9 Y6 Z2
G280
G1 F1500 E-6.5
;LAYER_COUNT:86
;LAYER:0
M107
M204 S625
M205 X6 Y6
G0 F5000 X61.475 Y59.372 Z0.27
M204 S500
M205 X5 Y5
;TYPE:SKIRT
G1 F1500 E0
G1 F900 X62.012 Y58.857 E0.01323
G1 X62.601 Y58.402 E0.02646
G1 X63.235 Y58.013 E0.03968
G1 X63.908 Y57.694 E0.05292
G1 X64.611 Y57.449 E0.06615
G1 X65.336 Y57.281 E0.07938
G1 X66.075 Y57.192 E0.09261
G1 X66.535 Y57.177 E0.10079
G1 X141.535 Y57.177 E1.43399
G1 X166.688 Y57.73 E1.88122
G1 X167.43 Y57.786 E1.89445
G1 X168.162 Y57.922 E1.90768
G1 X168.875 Y58.135 E1.92091
G1 X169.561 Y58.424 E1.93414
G1 X170.212 Y58.784 E1.94736
G1 X170.821 Y59.212 E1.9606
G1 X171.38 Y59.703 E1.97382
G1 X171.884 Y60.252 E1.98707
G1 X172.325 Y60.851 E2.00029
G1 X172.7 Y61.494 E2.01352
G1 X173.004 Y62.173 E2.02675
G1 X173.233 Y62.881 E2.03997
G1 X173.385 Y63.61 E2.05321
G1 X173.465 Y64.658 E2.0719
G1 X173.465 Y70.158 E2.16966
G1 X173.425 Y70.901 E2.18289
G1 X173.306 Y71.636 E2.19613
G1 X173.108 Y72.354 E2.20937
G1 X172.835 Y73.046 E2.22259
G1 X172.489 Y73.705 E2.23582
G1 X172.074 Y74.323 E2.24905
G1 X171.595 Y74.893 E2.26229
G1 X171.058 Y75.408 E2.27551
G1 X170.469 Y75.863 E2.28874
G1 X169.835 Y76.252 E2.30197
G1 X169.162 Y76.571 E2.3152
G1 X168.459 Y76.816 E2.32844
G1 X167.734 Y76.984 E2.34167
G1 X166.688 Y77.086 E2.36035
G1 X163.489 Y77.157 E2.41723
G1 X166.688 Y77.227 E2.47411
G1 X167.43 Y77.283 E2.48734
G1 X168.162 Y77.419 E2.50057
G1 X168.875 Y77.632 E2.5138
G1 X169.561 Y77.921 E2.52703
G1 X170.212 Y78.281 E2.54025
G1 X170.821 Y78.709 E2.55349
G1 X171.38 Y79.2 E2.56671
G1 X171.884 Y79.749 E2.57996
G1 X172.325 Y80.348 E2.59318
G1 X172.7 Y80.991 E2.60641
G1 X173.004 Y81.67 E2.61964
G1 X173.233 Y82.378 E2.63286
G1 X173.385 Y83.107 E2.6461
G1 X173.465 Y84.155 E2.66479
G1 X173.465 Y89.655 E2.76255
G1 X173.425 Y90.398 E2.77578
G1 X173.306 Y91.133 E2.78902
G1 X173.108 Y91.851 E2.80225
G1 X172.835 Y92.543 E2.81548
G1 X172.489 Y93.202 E2.82871
G1 X172.074 Y93.82 E2.84194
G1 X171.595 Y94.39 E2.85518
G1 X171.058 Y94.905 E2.8684
G1 X170.469 Y95.36 E2.88163
G1 X169.835 Y95.749 E2.89486
G1 X169.162 Y96.068 E2.90809
G1 X168.459 Y96.313 E2.92133
G1 X167.734 Y96.481 E2.93456
G1 X166.688 Y96.583 E2.95324
G1 X141.535 Y97.136 E3.40047
G1 X66.535 Y97.136 E4.73366
G1 X65.792 Y97.096 E4.74689
G1 X65.057 Y96.977 E4.76013
G1 X64.339 Y96.779 E4.77337
G1 X63.647 Y96.506 E4.78659
G1 X62.988 Y96.16 E4.79982
G1 X62.37 Y95.745 E4.81305
G1 X61.8 Y95.266 E4.82629
G1 X61.285 Y94.729 E4.83951
G1 X60.83 Y94.14 E4.85274
G1 X60.441 Y93.506 E4.86597
G1 X60.122 Y92.833 E4.87921
G1 X59.877 Y92.13 E4.89244
G1 X59.709 Y91.405 E4.90567
G1 X59.62 Y90.666 E4.9189
G1 X59.605 Y90.206 E4.92708
G1 X59.605 Y83.604 E5.04444
G1 X59.645 Y82.861 E5.05766
G1 X59.764 Y82.126 E5.0709
G1 X59.962 Y81.408 E5.08414
G1 X60.235 Y80.716 E5.09736
G1 X60.581 Y80.057 E5.11059
G1 X60.996 Y79.439 E5.12383
G1 X61.475 Y78.869 E5.13706
G1 X62.012 Y78.354 E5.15029
G1 X62.601 Y77.899 E5.16352
G1 X63.235 Y77.51 E5.17674
G1 X63.908 Y77.191 E5.18998
G1 X64.014 Y77.154 E5.19197
G1 X63.647 Y77.009 E5.19899
G1 X62.988 Y76.663 E5.21222
G1 X62.37 Y76.248 E5.22545
G1 X61.8 Y75.769 E5.23869
G1 X61.285 Y75.232 E5.25191
G1 X60.83 Y74.643 E5.26514
G1 X60.441 Y74.009 E5.27837
G1 X60.122 Y73.336 E5.29161
G1 X59.877 Y72.633 E5.30484
G1 X59.709 Y71.908 E5.31807
G1 X59.62 Y71.169 E5.3313
G1 X59.605 Y70.709 E5.33948
G1 X59.605 Y64.107 E5.45684
G1 X59.645 Y63.364 E5.47006
G1 X59.764 Y62.629 E5.4833
G1 X59.962 Y61.911 E5.49654
G1 X60.235 Y61.219 E5.50976
G1 X60.581 Y60.56 E5.52299
G1 X60.996 Y59.942 E5.53623
G1 X61.475 Y59.372 E5.54946
M204 S625
M205 X6 Y6
G0 F5000 X61.889 Y59.547
M204 S500
M205 X5 Y5
G1 F900 X62.422 Y59.061 E5.56228
G1 X63.006 Y58.637 E5.57511
G1 X63.633 Y58.28 E5.58794
G1 X64.295 Y57.994 E5.60076
G1 X64.985 Y57.784 E5.61358
G1 X65.694 Y57.652 E5.6264
G1 X66.535 Y57.597 E5.64138
G1 X141.535 Y57.597 E6.97458
G1 X166.678 Y58.15 E7.42163
G1 X167.398 Y58.205 E7.43446
G1 X168.106 Y58.34 E7.44727
G1 X168.796 Y58.553 E7.46011
G1 X169.457 Y58.841 E7.47293
G1 X170.083 Y59.2 E7.48576
G1 X170.665 Y59.626 E7.49858
G1 X171.196 Y60.114 E7.5114
G1 X171.671 Y60.657 E7.52422
G1 X172.082 Y61.25 E7.53705
G1 X172.425 Y61.885 E7.54988
G1 X172.695 Y62.553 E7.56268
G1 X172.89 Y63.248 E7.57551
G1 X173.007 Y63.96 E7.58834
G1 X173.045 Y64.658 E7.60077
G1 X173.045 Y70.158 E7.69853
G1 X173.005 Y70.878 E7.71135
G1 X172.886 Y71.59 E7.72418
G1 X172.688 Y72.284 E7.73701
G1 X172.415 Y72.951 E7.74983
G1 X172.07 Y73.585 E7.76266
G1 X171.657 Y74.176 E7.77547
G1 X171.181 Y74.718 E7.78829
G1 X170.648 Y75.204 E7.80112
G1 X170.064 Y75.628 E7.81395
G1 X169.437 Y75.985 E7.82677
G1 X168.775 Y76.271 E7.83959
G1 X168.085 Y76.481 E7.85241
G1 X167.376 Y76.613 E7.86523
G1 X166.678 Y76.666 E7.87767
G1 X144.423 Y77.157 E8.27337
G1 X166.678 Y77.647 E8.66907
G1 X167.398 Y77.702 E8.68191
G1 X168.106 Y77.837 E8.69472
G1 X168.796 Y78.05 E8.70756
G1 X169.457 Y78.338 E8.72038
G1 X170.083 Y78.697 E8.7332
G1 X170.665 Y79.123 E8.74602
G1 X171.196 Y79.611 E8.75884
G1 X171.671 Y80.154 E8.77167
G1 X172.082 Y80.747 E8.78449
G1 X172.425 Y81.382 E8.79732
G1 X172.695 Y82.05 E8.81013
G1 X172.89 Y82.745 E8.82296
G1 X173.007 Y83.457 E8.83579
G1 X173.045 Y84.155 E8.84821
G1 X173.045 Y89.655 E8.94598
G1 X173.005 Y90.375 E8.9588
G1 X172.886 Y91.087 E8.97163
G1 X172.688 Y91.781 E8.98446
G1 X172.415 Y92.448 E8.99727
G1 X172.07 Y93.082 E9.0101
G1 X171.657 Y93.673 E9.02292
G1 X171.181 Y94.215 E9.03574
G1 X170.648 Y94.701 E9.04856
G1 X170.064 Y95.125 E9.06139
G1 X169.437 Y95.482 E9.07422
G1 X168.775 Y95.768 E9.08704
G1 X168.085 Y95.978 E9.09986
G1 X167.376 Y96.11 E9.11268
G1 X166.678 Y96.163 E9.12512
G1 X141.535 Y96.716 E9.57217
G1 X66.535 Y96.716 E10.90537
G1 X65.815 Y96.676 E10.91819
G1 X65.103 Y96.557 E10.93102
G1 X64.409 Y96.359 E10.94385
G1 X63.742 Y96.086 E10.95666
G1 X63.108 Y95.741 E10.96949
G1 X62.517 Y95.328 E10.98231
G1 X61.975 Y94.852 E10.99513
G1 X61.489 Y94.319 E11.00795
G1 X61.065 Y93.735 E11.02078
G1 X60.708 Y93.108 E11.03361
G1 X60.422 Y92.446 E11.04643
G1 X60.212 Y91.756 E11.05925
G1 X60.08 Y91.047 E11.07207
G1 X60.025 Y90.206 E11.08705
G1 X60.025 Y83.604 E11.2044
G1 X60.065 Y82.884 E11.21722
G1 X60.184 Y82.172 E11.23005
G1 X60.382 Y81.478 E11.24288
G1 X60.655 Y80.811 E11.25569
G1 X61 Y80.177 E11.26853
G1 X61.413 Y79.586 E11.28134
G1 X61.889 Y79.044 E11.29416
G1 X62.422 Y78.558 E11.30699
G1 X63.006 Y78.134 E11.31982
G1 X63.633 Y77.777 E11.33264
G1 X64.295 Y77.491 E11.34546
G1 X64.985 Y77.281 E11.35828
G1 X65.666 Y77.154 E11.37059
G1 X65.103 Y77.06 E11.38074
G1 X64.409 Y76.862 E11.39357
G1 X63.742 Y76.589 E11.40638
G1 X63.108 Y76.244 E11.41921
G1 X62.517 Y75.831 E11.43203
G1 X61.975 Y75.355 E11.44485
G1 X61.489 Y74.822 E11.45767
G1 X61.065 Y74.238 E11.4705
G1 X60.708 Y73.611 E11.48333
G1 X60.422 Y72.949 E11.49615
G1 X60.212 Y72.259 E11.50897
G1 X60.08 Y71.55 E11.52179
G1 X60.025 Y70.709 E11.53677
G1 X60.025 Y64.107 E11.65413
G1 X60.065 Y63.387 E11.66694
G1 X60.184 Y62.675 E11.67978
G1 X60.382 Y61.981 E11.6926
G1 X60.655 Y61.314 E11.70542
G1 X61 Y60.68 E11.71825
G1 X61.413 Y60.089 E11.73106
G1 X61.889 Y59.547 E11.74389
M204 S625
M205 X6 Y6
G0 F5000 X62.303 Y59.728
M204 S500
M205 X5 Y5
G1 F900 X62.831 Y59.273 E11.75628
G1 X63.408 Y58.881 E11.76868
G1 X64.027 Y58.558 E11.78109
G1 X64.678 Y58.307 E11.79349
G1 X65.354 Y58.133 E11.8059
G1 X66.045 Y58.037 E11.8183
G1 X66.535 Y58.017 E11.82702
G1 X141.669 Y58.018 E13.1626
G1 X166.669 Y58.569 E13.6071
G1 X167.365 Y58.625 E13.61952
G1 X168.049 Y58.759 E13.63191
G1 X168.714 Y58.971 E13.64431
G1 X169.35 Y59.258 E13.65672
G1 X169.949 Y59.615 E13.66911
G1 X170.504 Y60.039 E13.68153
G1 X171.006 Y60.523 E13.69392
G1 X171.45 Y61.062 E13.70634
G1 X171.829 Y61.647 E13.71873
G1 X172.138 Y62.273 E13.73114
G1 X172.374 Y62.929 E13.74353
G1 X172.534 Y63.608 E13.75593
G1 X172.615 Y64.301 E13.76833
G1 X172.625 Y64.658 E13.77468
G1 X172.625 Y70.158 E13.87245
G1 X172.585 Y70.855 E13.88486
G1 X172.466 Y71.542 E13.89725
G1 X172.268 Y72.211 E13.90965
G1 X171.996 Y72.854 E13.92206
G1 X171.652 Y73.46 E13.93445
G1 X171.24 Y74.024 E13.94687
G1 X170.767 Y74.537 E13.95927
G1 X170.239 Y74.992 E13.97166
G1 X169.662 Y75.384 E13.98406
G1 X169.043 Y75.707 E13.99647
G1 X168.392 Y75.958 E14.00887
G1 X167.716 Y76.132 E14.02128
G1 X167.025 Y76.228 E14.03368
G1 X166.669 Y76.247 E14.04002
G1 X141.669 Y76.798 E14.48453
G1 X66.535 Y76.799 E15.82011
G1 X65.838 Y76.759 E15.83252
G1 X65.151 Y76.64 E15.84491
G1 X64.482 Y76.442 E15.85731
G1 X63.839 Y76.17 E15.86973
G1 X63.233 Y75.826 E15.88211
G1 X62.669 Y75.414 E15.89453
G1 X62.156 Y74.941 E15.90693
G1 X61.701 Y74.413 E15.91932
G1 X61.309 Y73.836 E15.93172
G1 X60.986 Y73.217 E15.94413
G1 X60.735 Y72.566 E15.95654
G1 X60.561 Y71.89 E15.96894
G1 X60.465 Y71.199 E15.98134
G1 X60.445 Y70.709 E15.99006
G1 X60.445 Y64.107 E16.10742
G1 X60.485 Y63.41 E16.11983
G1 X60.604 Y62.723 E16.13222
G1 X60.802 Y62.054 E16.14463
G1 X61.074 Y61.411 E16.15704
G1 X61.418 Y60.805 E16.16942
G1 X61.83 Y60.241 E16.18184
G1 X62.303 Y59.728 E16.19424
M204 S625
M205 X6 Y6
G0 F5000 X62.245 Y60.399
M204 S500
M205 X5 Y5
G1 F900 X62.715 Y59.917 E16.20621
G1 X63.239 Y59.494 E16.21818
G1 X63.809 Y59.135 E16.23015
G1 X64.417 Y58.847 E16.24211
G1 X65.055 Y58.633 E16.25408
G1 X65.715 Y58.497 E16.26605
G1 X66.535 Y58.437 E16.28067
G1 X141.66 Y58.438 E17.61609
G1 X166.66 Y58.989 E18.0606
G1 X167.331 Y59.044 E18.07256
G1 X167.991 Y59.178 E18.08454
G1 X168.63 Y59.389 E18.0965
G1 X169.24 Y59.675 E18.10847
G1 X169.811 Y60.03 E18.12043
G1 X170.337 Y60.451 E18.1324
G1 X170.808 Y60.931 E18.14436
G1 X171.22 Y61.464 E18.15633
G1 X171.565 Y62.042 E18.1683
G1 X171.84 Y62.657 E18.18027
G1 X172.04 Y63.299 E18.19223
G1 X172.162 Y63.961 E18.20419
G1 X172.205 Y64.658 E18.21661
G1 X172.205 Y70.158 E18.31437
G1 X172.165 Y70.83 E18.32634
G1 X172.046 Y71.493 E18.33831
G1 X171.849 Y72.136 E18.35027
G1 X171.577 Y72.752 E18.36224
G1 X171.234 Y73.331 E18.3742
G1 X170.825 Y73.866 E18.38617
G1 X170.355 Y74.348 E18.39814
G1 X169.831 Y74.771 E18.41011
G1 X169.261 Y75.13 E18.42208
G1 X168.653 Y75.418 E18.43404
G1 X168.015 Y75.632 E18.446
G1 X167.355 Y75.768 E18.45798
G1 X166.66 Y75.827 E18.47038
G1 X141.66 Y76.378 E18.91489
G1 X66.535 Y76.379 E20.25031
G1 X65.863 Y76.339 E20.26228
G1 X65.2 Y76.22 E20.27425
G1 X64.557 Y76.023 E20.2862
G1 X63.941 Y75.751 E20.29817
G1 X63.362 Y75.408 E20.31014
G1 X62.827 Y74.999 E20.32211
G1 X62.345 Y74.529 E20.33408
G1 X61.922 Y74.005 E20.34605
G1 X61.563 Y73.435 E20.35802
G1 X61.275 Y72.827 E20.36998
G1 X61.061 Y72.189 E20.38194
G1 X60.925 Y71.529 E20.39392
G1 X60.865 Y70.709 E20.40854
G1 X60.865 Y64.107 E20.52589
G1 X60.905 Y63.435 E20.53786
G1 X61.024 Y62.772 E20.54983
G1 X61.221 Y62.129 E20.56179
G1 X61.493 Y61.513 E20.57376
G1 X61.836 Y60.934 E20.58572
G1 X62.245 Y60.399 E20.59769
M204 S625
M205 X6 Y6
G0 F5000 X62.661 Y60.564
M204 S500
M205 X5 Y5
G1 F900 X63.127 Y60.114 E20.60921
G1 X63.644 Y59.725 E20.62071
G1 X64.206 Y59.402 E20.63223
G1 X64.803 Y59.151 E20.64374
G1 X65.427 Y58.975 E20.65527
G1 X66.067 Y58.878 E20.66677
G1 X66.535 Y58.857 E20.6751
G1 X141.651 Y58.858 E22.01036
G1 X166.651 Y59.409 E22.45487
G1 X167.296 Y59.463 E22.46637
G1 X167.93 Y59.597 E22.47789
G1 X168.543 Y59.807 E22.48941
G1 X169.125 Y60.091 E22.50092
G1 X169.668 Y60.445 E22.51245
G1 X170.163 Y60.863 E22.52396
G1 X170.602 Y61.338 E22.53546
G1 X170.98 Y61.865 E22.54699
G1 X171.29 Y62.433 E22.55849
G1 X171.528 Y63.036 E22.57001
G1 X171.69 Y63.663 E22.58153
G1 X171.773 Y64.305 E22.59303
G1 X171.785 Y64.658 E22.59931
G1 X171.785 Y70.158 E22.69708
G1 X171.745 Y70.805 E22.7086
G1 X171.626 Y71.441 E22.7201
G1 X171.429 Y72.058 E22.73162
G1 X171.158 Y72.647 E22.74314
G1 X170.816 Y73.197 E22.75466
G1 X170.409 Y73.701 E22.76617
G1 X169.943 Y74.151 E22.77769
G1 X169.426 Y74.54 E22.78919
G1 X168.864 Y74.863 E22.80071
G1 X168.267 Y75.114 E22.81222
G1 X167.643 Y75.29 E22.82375
G1 X167.003 Y75.387 E22.83525
G1 X166.651 Y75.407 E22.84152
G1 X141.651 Y75.958 E23.28603
G1 X66.535 Y75.959 E24.62129
G1 X65.888 Y75.919 E24.63281
G1 X65.252 Y75.8 E24.64431
G1 X64.635 Y75.603 E24.65583
G1 X64.046 Y75.332 E24.66735
G1 X63.496 Y74.99 E24.67886
G1 X62.992 Y74.583 E24.69038
G1 X62.542 Y74.117 E24.7019
G1 X62.153 Y73.6 E24.7134
G1 X61.83 Y73.038 E24.72492
G1 X61.579 Y72.441 E24.73643
G1 X61.403 Y71.817 E24.74796
G1 X61.306 Y71.177 E24.75946
G1 X61.285 Y70.709 E24.76779
G1 X61.285 Y64.107 E24.88515
G1 X61.325 Y63.46 E24.89667
G1 X61.444 Y62.824 E24.90817
G1 X61.641 Y62.207 E24.91968
G1 X61.912 Y61.618 E24.93121
G1 X62.254 Y61.068 E24.94272
G1 X62.661 Y60.564 E24.95424
M204 S625
M205 X6 Y6
G0 F5000 X63.075 Y60.737
M204 S500
M205 X5 Y5
G1 F900 X63.537 Y60.32 E24.9653
G1 X64.047 Y59.967 E24.97633
G1 X64.599 Y59.682 E24.98737
G1 X65.184 Y59.47 E24.99843
G1 X65.79 Y59.335 E25.00947
G1 X66.535 Y59.277 E25.02275
G1 X141.535 Y59.277 E26.35595
G1 X166.641 Y59.829 E26.80234
G1 X167.26 Y59.883 E26.81338
G1 X167.867 Y60.015 E26.82443
G1 X168.452 Y60.225 E26.83548
G1 X169.005 Y60.508 E26.84652
G1 X169.518 Y60.859 E26.85757
G1 X169.981 Y61.273 E26.86861
G1 X170.387 Y61.744 E26.87966
G1 X170.729 Y62.262 E26.8907
G1 X171.002 Y62.82 E26.90174
G1 X171.201 Y63.409 E26.91279
G1 X171.322 Y64.018 E26.92383
G1 X171.365 Y64.658 E26.93523
G1 X171.365 Y70.158 E27.033
G1 X171.325 Y70.778 E27.04404
G1 X171.206 Y71.388 E27.05509
G1 X171.009 Y71.977 E27.06613
G1 X170.739 Y72.536 E27.07716
G1 X170.399 Y73.056 E27.08821
G1 X169.995 Y73.528 E27.09925
G1 X169.533 Y73.945 E27.11032
G1 X169.023 Y74.298 E27.12134
G1 X168.471 Y74.583 E27.13238
G1 X167.886 Y74.795 E27.14344
G1 X167.28 Y74.93 E27.15448
G1 X166.641 Y74.987 E27.16588
G1 X141.535 Y75.539 E27.61228
G1 X66.535 Y75.539 E28.94547
G1 X65.915 Y75.499 E28.95652
G1 X65.305 Y75.38 E28.96757
G1 X64.716 Y75.183 E28.97861
G1 X64.157 Y74.913 E28.98964
G1 X63.637 Y74.573 E29.00069
G1 X63.165 Y74.169 E29.01173
G1 X62.748 Y73.707 E29.02279
G1 X62.395 Y73.197 E29.03382
G1 X62.11 Y72.645 E29.04486
G1 X61.898 Y72.06 E29.05592
G1 X61.763 Y71.454 E29.06696
G1 X61.705 Y70.709 E29.08024
G1 X61.705 Y64.107 E29.1976
G1 X61.745 Y63.487 E29.20864
G1 X61.864 Y62.877 E29.21969
G1 X62.061 Y62.288 E29.23073
G1 X62.331 Y61.729 E29.24177
G1 X62.671 Y61.209 E29.25281
G1 X63.075 Y60.737 E29.26385
M204 S625
M205 X6 Y6
G0 F5000 X63.489 Y60.918
M204 S500
M205 X5 Y5
G1 F900 X63.945 Y60.538 E29.2744
G1 X64.448 Y60.222 E29.28496
G1 X64.988 Y59.977 E29.29551
G1 X65.557 Y59.807 E29.30606
G1 X66.143 Y59.714 E29.31661
G1 X66.535 Y59.697 E29.32358
G1 X141.535 Y59.697 E30.65678
G1 X166.632 Y60.249 E31.10301
G1 X167.223 Y60.302 E31.11356
G1 X167.802 Y60.434 E31.12412
G1 X168.358 Y60.642 E31.13467
G1 X168.881 Y60.924 E31.14523
G1 X169.361 Y61.273 E31.15578
G1 X169.79 Y61.683 E31.16633
G1 X170.16 Y62.147 E31.17688
G1 X170.465 Y62.657 E31.18744
G1 X170.698 Y63.203 E31.19799
G1 X170.856 Y63.775 E31.20854
G1 X170.945 Y64.658 E31.22432
G1 X170.945 Y70.158 E31.32209
G1 X170.905 Y70.75 E31.33263
G1 X170.786 Y71.332 E31.34319
G1 X170.59 Y71.892 E31.35374
G1 X170.32 Y72.421 E31.3643
G1 X169.982 Y72.909 E31.37485
G1 X169.581 Y73.347 E31.38541
G1 X169.125 Y73.727 E31.39596
G1 X168.622 Y74.043 E31.40652
G1 X168.082 Y74.288 E31.41706
G1 X167.513 Y74.458 E31.42761
G1 X166.632 Y74.567 E31.44339
G1 X141.535 Y75.119 E31.88963
G1 X66.535 Y75.119 E33.22282
G1 X65.943 Y75.079 E33.23337
G1 X65.361 Y74.96 E33.24393
