;START_OF_HEADER
;HEADER_VERSION:0.1
;FLAVOR:Griffin
;GENERATOR.NAME:Cura_SteamEngine
;GENERATOR.VERSION:4.10.0
;GENERATOR.BUILD_DATE:2021-06-29
;TARGET_MACHINE.NAME:Ultimaker 3
;EXTRUDER_TRAIN.0.INITIAL_TEMPERATURE:250
;EXTRUDER_TRAIN.0.MATERIAL.VOLUME_USED:64010
;EXTRUDER_TRAIN.0.MATERIAL.GUID:1cbfaeb3-1906-4b26-b2e7-6f777a8c197a
;EXTRUDER_TRAIN.0.NOZZLE.DIAMETER:0.4
;EXTRUDER_TRAIN.0.NOZZLE.NAME:AA 0.4
;BUILD_PLATE.TYPE:glass
;BUILD_PLATE.INITIAL_TEMPERATURE:90
;PRINT.TIME:27398
;PRINT.GROUPS:1
;PRINT.SIZE.MIN.X:9
;PRINT.SIZE.MIN.Y:6
;PRINT.SIZE.MIN.Z:0.27
;PRINT.SIZE.MAX.X:173.497
;PRINT.SIZE.MAX.Y:156.954
;PRINT.SIZE.MAX.Z:21.02
;END_OF_HEADER
;Generated with Cura_SteamEngine 4.10.0
T0
M82 ;absolute extrusion mode

G92 E0
M109 S250
G0 F15000 X9 Y6 Z2
G280
G1 F1500 E-6.5
;LAYER_COUNT:84
;LAYER:0
M107
M204 S625
M205 X6 Y6
G0 F5000 X61.475 Y59.854 Z0.27
M204 S500
M205 X5 Y5
;TYPE:SKIRT
G1 F1500 E0
G1 F900 X62.012 Y59.339 E0.01323
G1 X62.601 Y58.884 E0.02646
G1 X63.235 Y58.495 E0.03968
G1 X63.908 Y58.176 E0.05292
G1 X64.611 Y57.931 E0.06615
G1 X65.336 Y57.763 E0.07938
G1 X66.075 Y57.674 E0.09261
G1 X66.535 Y57.659 E0.10079
G1 X141.674 Y57.66 E1.43646
G1 X166.674 Y58.161 E1.88095
G1 X167.416 Y58.216 E1.89418
G1 X168.148 Y58.35 E1.9074
G1 X168.862 Y58.562 E1.92064
G1 X169.548 Y58.849 E1.93386
G1 X170.2 Y59.209 E1.9471
G1 X170.81 Y59.636 E1.96034
G1 X171.37 Y60.126 E1.97357
G1 X171.875 Y60.673 E1.9868
G1 X172.318 Y61.271 E2.00003
G1 X172.694 Y61.913 E2.01325
G1 X172.999 Y62.592 E2.02649
G1 X173.23 Y63.3 E2.03972
G1 X173.383 Y64.028 E2.05295
G1 X173.465 Y65.09 E2.07188
G1 X173.465 Y70.088 E2.16073
G1 X173.425 Y70.831 E2.17395
G1 X173.306 Y71.566 E2.18719
G1 X173.108 Y72.284 E2.20043
G1 X172.835 Y72.976 E2.21365
G1 X172.489 Y73.635 E2.22688
G1 X172.074 Y74.253 E2.24011
G1 X171.595 Y74.823 E2.25335
G1 X171.058 Y75.338 E2.26658
G1 X170.469 Y75.793 E2.27981
G1 X169.835 Y76.182 E2.29303
G1 X169.162 Y76.501 E2.30627
G1 X168.459 Y76.746 E2.3195
G1 X167.734 Y76.914 E2.33273
G1 X166.674 Y77.017 E2.35166
G1 X141.674 Y77.518 E2.79615
G1 X66.535 Y77.519 E4.13182
G1 X65.792 Y77.479 E4.14505
G1 X65.057 Y77.36 E4.15828
G1 X64.339 Y77.162 E4.17152
G1 X63.647 Y76.889 E4.18474
G1 X62.988 Y76.543 E4.19798
G1 X62.37 Y76.128 E4.21121
G1 X61.8 Y75.649 E4.22444
G1 X61.285 Y75.112 E4.23767
G1 X60.83 Y74.523 E4.2509
G1 X60.441 Y73.889 E4.26412
G1 X60.122 Y73.216 E4.27736
G1 X59.877 Y72.513 E4.29059
G1 X59.709 Y71.788 E4.30382
G1 X59.62 Y71.049 E4.31705
G1 X59.605 Y70.589 E4.32524
G1 X59.605 Y64.589 E4.43189
G1 X59.645 Y63.846 E4.44512
G1 X59.764 Y63.111 E4.45835
G1 X59.962 Y62.393 E4.47159
G1 X60.235 Y61.701 E4.48482
G1 X60.581 Y61.042 E4.49805
G1 X60.996 Y60.424 E4.51128
G1 X61.475 Y59.854 E4.52452
M204 S625
M205 X6 Y6
G0 F5000 X61.889 Y60.029
M204 S500
M205 X5 Y5
G1 F900 X62.422 Y59.543 E4.53734
G1 X63.006 Y59.119 E4.55017
G1 X63.633 Y58.762 E4.56299
G1 X64.295 Y58.476 E4.57581
G1 X64.985 Y58.266 E4.58863
G1 X65.694 Y58.134 E4.60145
G1 X66.535 Y58.079 E4.61643
G1 X141.665 Y58.08 E5.95194
G1 X166.665 Y58.581 E6.39643
G1 X167.385 Y58.636 E6.40927
G1 X168.094 Y58.769 E6.42209
G1 X168.783 Y58.981 E6.4349
G1 X169.446 Y59.267 E6.44774
G1 X170.072 Y59.625 E6.46056
G1 X170.655 Y60.05 E6.47338
G1 X171.187 Y60.536 E6.48619
G1 X171.663 Y61.079 E6.49903
G1 X172.075 Y61.671 E6.51185
G1 X172.419 Y62.305 E6.52467
G1 X172.691 Y62.973 E6.53749
G1 X172.888 Y63.667 E6.55032
G1 X173.006 Y64.379 E6.56314
G1 X173.045 Y65.09 E6.5758
G1 X173.045 Y70.088 E6.66465
G1 X173.005 Y70.808 E6.67746
G1 X172.886 Y71.52 E6.6903
G1 X172.688 Y72.214 E6.70313
G1 X172.415 Y72.881 E6.71594
G1 X172.07 Y73.515 E6.72877
G1 X171.657 Y74.106 E6.74158
G1 X171.181 Y74.648 E6.75441
G1 X170.648 Y75.134 E6.76723
G1 X170.064 Y75.558 E6.78006
G1 X169.437 Y75.915 E6.79288
G1 X168.775 Y76.201 E6.8057
G1 X168.085 Y76.411 E6.81852
G1 X167.376 Y76.543 E6.83134
G1 X166.665 Y76.597 E6.84402
G1 X141.665 Y77.098 E7.28851
G1 X66.535 Y77.099 E8.62402
G1 X65.815 Y77.059 E8.63683
G1 X65.103 Y76.94 E8.64967
G1 X64.409 Y76.742 E8.66249
G1 X63.742 Y76.469 E8.67531
G1 X63.108 Y76.124 E8.68814
G1 X62.517 Y75.711 E8.70095
G1 X61.975 Y75.235 E8.71378
G1 X61.489 Y74.702 E8.7266
G1 X61.065 Y74.118 E8.73943
G1 X60.708 Y73.491 E8.75225
G1 X60.422 Y72.829 E8.76507
G1 X60.212 Y72.139 E8.77789
G1 X60.08 Y71.43 E8.79071
G1 X60.025 Y70.589 E8.80569
G1 X60.025 Y64.589 E8.91235
G1 X60.065 Y63.869 E8.92517
G1 X60.184 Y63.157 E8.938
G1 X60.382 Y62.463 E8.95083
G1 X60.655 Y61.796 E8.96364
G1 X61 Y61.162 E8.97647
G1 X61.413 Y60.571 E8.98929
G1 X61.889 Y60.029 E9.00211
M204 S625
M205 X6 Y6
G0 F5000 X62.303 Y60.21
M204 S500
M205 X5 Y5
G1 F900 X62.831 Y59.755 E9.0145
G1 X63.408 Y59.363 E9.0269
G1 X64.027 Y59.04 E9.03931
G1 X64.678 Y58.789 E9.05171
G1 X65.354 Y58.615 E9.06412
G1 X66.045 Y58.519 E9.07652
G1 X66.535 Y58.499 E9.08524
G1 X141.657 Y58.5 E10.42061
G1 X166.657 Y59.001 E10.86509
G1 X167.353 Y59.055 E10.8775
G1 X168.038 Y59.188 E10.88991
G1 X168.703 Y59.399 E10.90231
G1 X169.339 Y59.684 E10.9147
G1 X169.939 Y60.04 E10.9271
G1 X170.495 Y60.463 E10.93952
G1 X170.998 Y60.946 E10.95192
G1 X171.442 Y61.484 E10.96431
G1 X171.823 Y62.069 E10.97672
G1 X172.134 Y62.693 E10.98912
G1 X172.371 Y63.35 E11.00153
G1 X172.532 Y64.028 E11.01392
G1 X172.614 Y64.721 E11.02633
G1 X172.625 Y65.09 E11.03289
G1 X172.625 Y70.088 E11.12173
G1 X172.585 Y70.785 E11.13414
G1 X172.466 Y71.472 E11.14654
G1 X172.268 Y72.141 E11.15894
G1 X171.996 Y72.784 E11.17135
G1 X171.652 Y73.39 E11.18374
G1 X171.24 Y73.954 E11.19615
G1 X170.767 Y74.467 E11.20856
G1 X170.239 Y74.922 E11.22095
G1 X169.662 Y75.314 E11.23334
G1 X169.043 Y75.637 E11.24576
G1 X168.392 Y75.888 E11.25816
G1 X167.716 Y76.062 E11.27057
G1 X167.025 Y76.158 E11.28297
G1 X166.657 Y76.177 E11.28952
G1 X141.657 Y76.678 E11.73401
G1 X66.535 Y76.679 E13.06937
G1 X65.838 Y76.639 E13.08178
G1 X65.151 Y76.52 E13.09418
G1 X64.482 Y76.322 E13.10658
G1 X63.839 Y76.05 E13.11899
G1 X63.233 Y75.706 E13.13138
G1 X62.669 Y75.294 E13.14379
G1 X62.156 Y74.821 E13.1562
G1 X61.701 Y74.293 E13.16859
G1 X61.309 Y73.716 E13.18099
G1 X60.986 Y73.097 E13.1934
G1 X60.735 Y72.446 E13.2058
G1 X60.561 Y71.77 E13.21821
G1 X60.465 Y71.079 E13.23061
G1 X60.445 Y70.589 E13.23933
G1 X60.445 Y64.589 E13.34598
G1 X60.485 Y63.892 E13.35839
G1 X60.604 Y63.205 E13.37079
G1 X60.802 Y62.536 E13.38319
G1 X61.074 Y61.893 E13.3956
G1 X61.418 Y61.287 E13.40799
G1 X61.83 Y60.723 E13.4204
G1 X62.303 Y60.21 E13.43281
M204 S625
M205 X6 Y6
G0 F5000 X62.245 Y60.881
M204 S500
M205 X5 Y5
G1 F900 X62.715 Y60.399 E13.44477
G1 X63.239 Y59.976 E13.45674
G1 X63.809 Y59.617 E13.46872
G1 X64.417 Y59.329 E13.48068
G1 X65.055 Y59.115 E13.49264
G1 X65.715 Y58.979 E13.50462
G1 X66.535 Y58.919 E13.51923
G1 X141.535 Y58.919 E14.85243
G1 X166.649 Y59.421 E15.29895
G1 X167.32 Y59.475 E15.31091
G1 X167.98 Y59.607 E15.32288
G1 X168.619 Y59.817 E15.33483
G1 X169.23 Y60.101 E15.34681
G1 X169.802 Y60.456 E15.35878
G1 X170.328 Y60.876 E15.37074
G1 X170.801 Y61.355 E15.38271
G1 X171.214 Y61.887 E15.39468
G1 X171.56 Y62.464 E15.40664
G1 X171.836 Y63.078 E15.41861
G1 X172.037 Y63.72 E15.43057
G1 X172.161 Y64.382 E15.44254
G1 X172.205 Y65.09 E15.45515
G1 X172.205 Y70.088 E15.54399
G1 X172.165 Y70.76 E15.55596
G1 X172.046 Y71.423 E15.56793
G1 X171.849 Y72.066 E15.57989
G1 X171.577 Y72.682 E15.59186
G1 X171.234 Y73.261 E15.60382
G1 X170.825 Y73.796 E15.61579
G1 X170.355 Y74.278 E15.62776
G1 X169.831 Y74.701 E15.63973
G1 X169.261 Y75.06 E15.6517
G1 X168.653 Y75.348 E15.66366
G1 X168.015 Y75.562 E15.67562
G1 X167.355 Y75.698 E15.6876
G1 X166.649 Y75.757 E15.7002
G1 X141.535 Y76.259 E16.14671
G1 X66.535 Y76.259 E17.47991
G1 X65.863 Y76.219 E17.49188
G1 X65.2 Y76.1 E17.50385
G1 X64.557 Y75.903 E17.5158
G1 X63.941 Y75.631 E17.52777
G1 X63.362 Y75.288 E17.53974
G1 X62.827 Y74.879 E17.55171
G1 X62.345 Y74.409 E17.56368
G1 X61.922 Y73.885 E17.57565
G1 X61.563 Y73.315 E17.58762
G1 X61.275 Y72.707 E17.59958
G1 X61.061 Y72.069 E17.61154
G1 X60.925 Y71.409 E17.62352
G1 X60.865 Y70.589 E17.63814
G1 X60.865 Y64.589 E17.74479
G1 X60.905 Y63.917 E17.75676
G1 X61.024 Y63.254 E17.76873
G1 X61.221 Y62.611 E17.78069
G1 X61.493 Y61.995 E17.79266
G1 X61.836 Y61.416 E17.80462
G1 X62.245 Y60.881 E17.81659
M204 S625
M205 X6 Y6
G0 F5000 X62.661 Y61.046
M204 S500
M205 X5 Y5
G1 F900 X63.127 Y60.596 E17.8281
G1 X63.644 Y60.207 E17.83961
G1 X64.206 Y59.884 E17.85113
G1 X64.803 Y59.633 E17.86264
G1 X65.427 Y59.457 E17.87417
G1 X66.067 Y59.36 E17.88567
G1 X66.535 Y59.339 E17.894
G1 X141.535 Y59.339 E19.2272
G1 X166.64 Y59.841 E19.67355
G1 X167.286 Y59.894 E19.68507
G1 X167.92 Y60.026 E19.69659
G1 X168.533 Y60.235 E19.7081
G1 X169.116 Y60.518 E19.71962
G1 X169.659 Y60.871 E19.73113
G1 X170.155 Y61.288 E19.74265
G1 X170.596 Y61.762 E19.75416
G1 X170.975 Y62.288 E19.76568
G1 X171.286 Y62.856 E19.77719
G1 X171.525 Y63.458 E19.78871
G1 X171.688 Y64.085 E19.80022
G1 X171.772 Y64.727 E19.81173
G1 X171.785 Y65.09 E19.81819
G1 X171.785 Y70.088 E19.90703
G1 X171.745 Y70.735 E19.91856
G1 X171.626 Y71.371 E19.93006
G1 X171.429 Y71.988 E19.94157
G1 X171.158 Y72.577 E19.9531
G1 X170.816 Y73.127 E19.96461
G1 X170.409 Y73.631 E19.97613
G1 X169.943 Y74.081 E19.98764
G1 X169.426 Y74.47 E19.99914
G1 X168.864 Y74.793 E20.01067
G1 X168.267 Y75.044 E20.02218
G1 X167.643 Y75.22 E20.0337
G1 X167.003 Y75.317 E20.04521
G1 X166.64 Y75.337 E20.05167
G1 X141.535 Y75.839 E20.49803
G1 X66.535 Y75.839 E21.83122
G1 X65.888 Y75.799 E21.84275
G1 X65.252 Y75.68 E21.85425
G1 X64.635 Y75.483 E21.86576
G1 X64.046 Y75.212 E21.87729
G1 X63.496 Y74.87 E21.8888
G1 X62.992 Y74.463 E21.90032
G1 X62.542 Y73.997 E21.91183
G1 X62.153 Y73.48 E21.92333
G1 X61.83 Y72.918 E21.93486
G1 X61.579 Y72.321 E21.94637
G1 X61.403 Y71.697 E21.95789
G1 X61.306 Y71.057 E21.9694
G1 X61.285 Y70.589 E21.97773
G1 X61.285 Y64.589 E22.08438
G1 X61.325 Y63.942 E22.09591
G1 X61.444 Y63.306 E22.10741
G1 X61.641 Y62.689 E22.11892
G1 X61.912 Y62.1 E22.13045
G1 X62.254 Y61.55 E22.14196
G1 X62.661 Y61.046 E22.15347
M204 S625
M205 X6 Y6
G0 F5000 X63.075 Y61.219
M204 S500
M205 X5 Y5
G1 F900 X63.537 Y60.802 E22.16454
G1 X64.047 Y60.449 E22.17556
G1 X64.599 Y60.164 E22.18661
G1 X65.184 Y59.952 E22.19767
G1 X65.79 Y59.817 E22.2087
G1 X66.535 Y59.759 E22.22199
G1 X141.535 Y59.759 E23.55518
G1 X166.632 Y60.261 E24.0014
G1 X167.251 Y60.313 E24.01244
G1 X167.858 Y60.445 E24.02348
G1 X168.443 Y60.653 E24.03452
G1 X168.997 Y60.935 E24.04557
G1 X169.51 Y61.285 E24.05661
G1 X169.974 Y61.699 E24.06766
G1 X170.381 Y62.168 E24.0787
G1 X170.724 Y62.686 E24.08974
G1 X170.998 Y63.244 E24.10079
G1 X171.198 Y63.832 E24.11183
G1 X171.321 Y64.441 E24.12288
G1 X171.365 Y65.09 E24.13444
G1 X171.365 Y70.088 E24.22329
G1 X171.325 Y70.708 E24.23433
G1 X171.206 Y71.318 E24.24538
G1 X171.009 Y71.907 E24.25642
G1 X170.739 Y72.466 E24.26745
G1 X170.399 Y72.986 E24.2785
G1 X169.995 Y73.458 E24.28954
G1 X169.533 Y73.875 E24.3006
G1 X169.023 Y74.228 E24.31163
G1 X168.471 Y74.513 E24.32267
G1 X167.886 Y74.725 E24.33373
G1 X167.28 Y74.86 E24.34477
G1 X166.632 Y74.917 E24.35633
G1 X141.535 Y75.419 E24.80255
G1 X66.535 Y75.419 E26.13574
G1 X65.915 Y75.379 E26.14679
G1 X65.305 Y75.26 E26.15784
G1 X64.716 Y75.063 E26.16888
G1 X64.157 Y74.793 E26.17991
G1 X63.637 Y74.453 E26.19095
G1 X63.165 Y74.049 E26.202
G1 X62.748 Y73.587 E26.21306
G1 X62.395 Y73.077 E26.22409
G1 X62.11 Y72.525 E26.23513
G1 X61.898 Y71.94 E26.24619
G1 X61.763 Y71.334 E26.25723
G1 X61.705 Y70.589 E26.27051
G1 X61.705 Y64.589 E26.37717
G1 X61.745 Y63.969 E26.38821
G1 X61.864 Y63.359 E26.39926
G1 X62.061 Y62.77 E26.4103
G1 X62.331 Y62.211 E26.42133
G1 X62.671 Y61.691 E26.43238
G1 X63.075 Y61.219 E26.44342
M204 S625
M205 X6 Y6
G0 F5000 X63.489 Y61.4
M204 S500
M205 X5 Y5
G1 F900 X63.945 Y61.02 E26.45397
G1 X64.448 Y60.704 E26.46453
G1 X64.988 Y60.459 E26.47507
G1 X65.557 Y60.289 E26.48563
G1 X66.143 Y60.196 E26.49618
G1 X66.535 Y60.179 E26.50315
G1 X141.535 Y60.179 E27.83635
G1 X166.623 Y60.681 E28.2824
G1 X167.215 Y60.733 E28.29297
G1 X167.794 Y60.863 E28.30351
G1 X168.35 Y61.071 E28.31407
G1 X168.873 Y61.351 E28.32461
G1 X169.354 Y61.699 E28.33517
G1 X169.784 Y62.108 E28.34571
G1 X170.155 Y62.572 E28.35628
G1 X170.461 Y63.081 E28.36683
G1 X170.695 Y63.626 E28.37738
G1 X170.854 Y64.198 E28.38793
G1 X170.935 Y64.786 E28.39848
G1 X170.945 Y65.09 E28.40389
G1 X170.945 Y70.088 E28.49273
G1 X170.905 Y70.68 E28.50328
G1 X170.786 Y71.262 E28.51384
G1 X170.59 Y71.822 E28.52438
G1 X170.32 Y72.351 E28.53494
G1 X169.982 Y72.839 E28.54549
G1 X169.581 Y73.277 E28.55605
G1 X169.125 Y73.657 E28.5666
G1 X168.622 Y73.973 E28.57716
G1 X168.082 Y74.218 E28.5877
G1 X167.513 Y74.388 E28.59826
G1 X166.927 Y74.481 E28.60881
G1 X166.623 Y74.497 E28.61422
G1 X141.535 Y74.999 E29.06027
G1 X66.535 Y74.999 E30.39347
G1 X65.943 Y74.959 E30.40402
G1 X65.361 Y74.84 E30.41458
G1 X64.801 Y74.644 E30.42512
G1 X64.272 Y74.374 E30.43568
G1 X63.784 Y74.036 E30.44623
G1 X63.346 Y73.635 E30.45679
G1 X62.966 Y73.179 E30.46734
G1 X62.65 Y72.676 E30.4779
G1 X62.405 Y72.136 E30.48844
G1 X62.235 Y71.567 E30.499
G1 X62.142 Y70.981 E30.50954
G1 X62.125 Y70.589 E30.51652
G1 X62.125 Y64.589 E30.62317
G1 X62.165 Y63.997 E30.63372
G1 X62.284 Y63.415 E30.64428
G1 X62.48 Y62.855 E30.65483
G1 X62.75 Y62.326 E30.66538
G1 X63.088 Y61.838 E30.67594
G1 X63.489 Y61.4 E30.68649
M204 S625
M205 X6 Y6
G0 F5000 X63.504 Y61.994
M204 S500
M205 X5 Y5
G1 F900 X63.901 Y61.592 E30.69654
G1 X64.35 Y61.25 E30.70657
G1 X64.844 Y60.975 E30.71662
G1 X65.371 Y60.773 E30.72665
G1 X65.921 Y60.647 E30.73668
G1 X66.535 Y60.599 E30.74763
G1 X141.535 Y60.599 E32.08083
G1 X166.615 Y61.101 E32.52674
G1 X167.177 Y61.152 E32.53677
G1 X167.727 Y61.282 E32.54682
G1 X168.252 Y61.488 E32.55684
G1 X168.743 Y61.767 E32.56688
G1 X169.19 Y62.112 E32.57692
G1 X169.584 Y62.517 E32.58696
G1 X169.917 Y62.973 E32.597
G1 X170.182 Y63.471 E32.60703
G1 X170.374 Y64.002 E32.61706
G1 X170.489 Y64.555 E32.6271
G1 X170.525 Y65.09 E32.63664
G1 X170.525 Y70.088 E32.72548
G1 X170.485 Y70.651 E32.73551
G1 X170.366 Y71.203 E32.74555
G1 X170.17 Y71.733 E32.7556
G1 X169.902 Y72.229 E32.76562
G1 X169.566 Y72.683 E32.77566
G1 X169.169 Y73.085 E32.7857
G1 X168.72 Y73.427 E32.79573
G1 X168.226 Y73.702 E32.80578
G1 X167.699 Y73.904 E32.81582
G1 X167.149 Y74.03 E32.82585
G1 X166.615 Y74.077 E32.83538
G1 X141.535 Y74.579 E33.28129
G1 X66.535 Y74.579 E34.61448
G1 X65.972 Y74.539 E34.62452
G1 X65.42 Y74.42 E34.63455
G1 X64.89 Y74.224 E34.6446
G1 X64.394 Y73.956 E34.65462
G1 X63.94 Y73.62 E34.66466
G1 X63.538 Y73.223 E34.6747
G1 X63.196 Y72.774 E34.68474
G1 X62.921 Y72.28 E34.69479
G1 X62.719 Y71.753 E34.70482
G1 X62.593 Y71.203 E34.71485
G1 X62.545 Y70.589 E34.7258
G1 X62.545 Y64.589 E34.83245
G1 X62.585 Y64.026 E34.84249
G1 X62.704 Y63.474 E34.85253
G1 X62.9 Y62.944 E34.86257
G1 X63.168 Y62.448 E34.87259
G1 X63.504 Y61.994 E34.88263
M204 S625
M205 X6 Y6
G0 F5000 X63.92 Y62.159
M204 S500
M205 X5 Y5
G1 F900 X64.311 Y61.796 E34.89212
G1 X64.753 Y61.496 E34.90161
G1 X65.234 Y61.264 E34.9111
G1 X65.745 Y61.108 E34.9206
G1 X66.535 Y61.019 E34.93473
G1 X141.535 Y61.019 E36.26793
G1 X166.607 Y61.521 E36.7137
G1 X167.138 Y61.571 E36.72318
G1 X167.656 Y61.701 E36.73267
G1 X168.149 Y61.906 E36.74217
G1 X168.606 Y62.182 E36.75166
G1 X169.017 Y62.524 E36.76116
G1 X169.372 Y62.923 E36.77065
G1 X169.663 Y63.37 E36.78014
G1 X169.885 Y63.856 E36.78963
G1 X170.032 Y64.37 E36.79914
G1 X170.105 Y65.09 E36.812
G1 X170.105 Y70.088 E36.90084
G1 X170.065 Y70.621 E36.91035
G1 X169.946 Y71.141 E36.91983
G1 X169.751 Y71.638 E36.92932
G1 X169.484 Y72.101 E36.93882
G1 X169.15 Y72.518 E36.94832
G1 X168.759 Y72.881 E36.9578
G1 X168.317 Y73.181 E36.9673
G1 X167.836 Y73.413 E36.97679
G1 X167.325 Y73.569 E36.98629
G1 X166.607 Y73.657 E36.99915
G1 X141.535 Y74.159 E37.44491
G1 X66.535 Y74.159 E38.77811
G1 X66.002 Y74.119 E38.78761
G1 X65.482 Y74 E38.7971
G1 X64.985 Y73.805 E38.80659
G1 X64.522 Y73.538 E38.81609
G1 X64.105 Y73.204 E38.82558
G1 X63.742 Y72.813 E38.83507
G1 X63.442 Y72.371 E38.84456
G1 X63.21 Y71.89 E38.85406
G1 X63.054 Y71.379 E38.86355
G1 X62.965 Y70.589 E38.87769
